X: 31126
T: Paddy Fahey's
R: jig
M: 6/8
K: Gmajor
|:DGA B2d|cBG AFD|dBd cAc|BGB AFD|
DGA B2d|cBG ABc|dfa gdc|1 AGF G2F:|2 AGF GBd||
|:g2a bag|fga gfd|g2a bag|fga g2d|
gdB GBd|cBG ABc|dfa gdc|1 AGF GBd:|2 AGF G2F||

